static/logos/shopify-wordmark-color.svg

<svg width="100" height="29" viewBox="0 0 100 29" fill="none" xmlns="http://www.w3.org/2000/svg">
<g clip-path="url(#clip0_1_1107)">
<path d="M21.5701 5.37367C21.5508 5.23274 21.4277 5.15456 21.3255 5.14605C21.2241 5.13754 19.2374 5.10735 19.2374 5.10735C19.2374 5.10735 17.5759 3.49384 17.4117 3.3297C17.2476 3.16556 16.9271 3.21511 16.8024 3.25227C16.8009 3.25305 16.4904 3.34906 15.9678 3.51087C15.8803 3.2275 15.7518 2.87909 15.5683 2.52914C14.9768 1.40031 14.1104 0.803372 13.0636 0.801828C13.0621 0.801828 13.0613 0.801828 13.0598 0.801828C12.987 0.801828 12.915 0.808795 12.8422 0.814986C12.8113 0.777823 12.7803 0.741437 12.7478 0.705819C12.2917 0.218054 11.7072 -0.0196363 11.0065 0.00126796C9.6547 0.0399797 8.30833 1.01629 7.21665 2.75057C6.4486 3.97076 5.86405 5.50377 5.69837 6.69065C4.14602 7.17144 3.06054 7.50744 3.03654 7.51521C2.25302 7.7614 2.22825 7.7854 2.12605 8.52405C2.05017 9.08223 0 24.9355 0 24.9355L17.181 27.907L24.6276 26.0558C24.6276 26.0558 21.5895 5.5146 21.5701 5.37367ZM15.1076 3.7772C14.712 3.89953 14.2621 4.0389 13.7744 4.18987C13.7643 3.50545 13.683 2.55314 13.364 1.73013C14.3899 1.92447 14.8947 3.08504 15.1076 3.7772ZM12.8755 4.4686C11.9751 4.7473 10.9926 5.05158 10.007 5.35665C10.2841 4.29517 10.8099 3.23834 11.4556 2.5454C11.6956 2.28758 12.0316 2.00034 12.4295 1.8362C12.8035 2.61663 12.8848 3.72146 12.8755 4.4686ZM11.0336 0.900926C11.351 0.893958 11.6181 0.963642 11.8466 1.11384C11.4811 1.30353 11.128 1.57606 10.7967 1.93143C9.93805 2.85277 9.27995 4.28278 9.01749 5.66247C8.19912 5.91563 7.39856 6.16419 6.66149 6.39181C7.12684 4.22007 8.94702 0.961316 11.0336 0.900926Z" fill="#95BF47"/>
<path d="M21.3242 5.1469C21.2228 5.13838 19.2361 5.1082 19.2361 5.1082C19.2361 5.1082 17.5746 3.49469 17.4104 3.33056C17.3493 3.26939 17.2664 3.23765 17.1797 3.22449L17.1805 27.9063L24.6263 26.0559C24.6263 26.0559 21.5882 5.51545 21.5689 5.37452C21.5495 5.23359 21.4256 5.15541 21.3242 5.1469Z" fill="#5E8E3E"/>
<path d="M13.0552 8.97541L12.1904 12.2109C12.1904 12.2109 11.2257 11.7719 10.0822 11.8439C8.40517 11.95 8.38735 13.0076 8.40442 13.2732C8.49577 14.7202 12.3027 15.0361 12.5164 18.4257C12.6844 21.0921 11.1018 22.9162 8.82173 23.0602C6.08479 23.2329 4.57812 21.6186 4.57812 21.6186L5.15805 19.1519C5.15805 19.1519 6.67475 20.2962 7.88875 20.2196C8.68159 20.1693 8.96493 19.5243 8.93628 19.0683C8.81707 17.1807 5.71703 17.2922 5.52117 14.1906C5.35624 11.5807 7.07042 8.93592 10.8525 8.69745C12.3096 8.60378 13.0552 8.97541 13.0552 8.97541Z" fill="white"/>
<path d="M34.4345 15.7506C33.5783 15.286 33.1382 14.8943 33.1382 14.356C33.1382 13.671 33.7495 13.231 34.704 13.231C35.8152 13.231 36.8073 13.6956 36.8073 13.6956L37.5898 11.2981C37.5898 11.2981 36.8703 10.7353 34.7524 10.7353C31.8051 10.7353 29.7625 12.4231 29.7625 14.796C29.7625 16.1414 30.7162 17.1689 31.9886 17.9022C33.0161 18.4889 33.3832 18.9052 33.3832 19.5164C33.3832 20.1523 32.8695 20.666 31.9157 20.666C30.4943 20.666 29.1519 19.9319 29.1519 19.9319L28.3203 22.3293C28.3203 22.3293 29.5605 23.161 31.6469 23.161C34.6802 23.161 36.8573 21.6689 36.8573 18.9781C36.8565 17.536 35.7561 16.5085 34.4345 15.7506Z" fill="black"/>
<path d="M46.5162 10.7114C45.024 10.7114 43.8499 11.421 42.9453 12.4968L42.8961 12.4722L44.1923 5.69687H40.8166L37.5391 22.9413H40.9148L42.0399 17.0467C42.4799 14.8205 43.6294 13.4513 44.7061 13.4513C45.464 13.4513 45.7581 13.9651 45.7581 14.6992C45.7581 15.1638 45.709 15.7267 45.6114 16.1913L44.3398 22.9421H47.7157L49.0362 15.9709C49.1832 15.2367 49.2813 14.3567 49.2813 13.7692C49.2799 11.861 48.2771 10.7114 46.5162 10.7114Z" fill="black"/>
<path d="M56.9148 10.7114C52.8538 10.7114 50.1641 14.3806 50.1641 18.4651C50.1641 21.0822 51.778 23.1855 54.8115 23.1855C58.7985 23.1855 61.4892 19.6147 61.4892 15.4318C61.4892 13.0106 60.0701 10.7114 56.9148 10.7114ZM55.2515 20.5938C54.1017 20.5938 53.6124 19.6154 53.6124 18.3921C53.6124 16.46 54.6157 13.3047 56.4501 13.3047C57.6487 13.3047 58.0394 14.3321 58.0394 15.3351C58.0394 17.4138 57.0376 20.5938 55.2515 20.5938Z" fill="black"/>
<path d="M70.1211 10.7114C67.8425 10.7114 66.5495 12.7172 66.5495 12.7172H66.5011L66.6969 10.9072H63.7127C63.5662 12.1305 63.2964 13.9889 63.0281 15.3834L60.6797 27.7354H64.0555L64.9843 22.7455H65.0583C65.0583 22.7455 65.7508 23.1855 67.0397 23.1855C71.002 23.1855 73.5946 19.1255 73.5946 15.0156C73.5946 12.7418 72.5913 10.7114 70.1211 10.7114ZM66.8923 20.6421C66.016 20.6421 65.4974 20.153 65.4974 20.153L66.0602 16.9976C66.4518 14.8943 67.5523 13.4997 68.7267 13.4997C69.7541 13.4997 70.0718 14.4535 70.0718 15.3589C70.0718 17.5359 68.7755 20.6421 66.8923 20.6421Z" fill="black"/>
<path d="M78.4165 5.86823C77.3407 5.86823 76.4844 6.72446 76.4844 7.82488C76.4844 8.82781 77.1202 9.51278 78.0741 9.51278H78.123C79.1751 9.51278 80.0797 8.8032 80.1044 7.55613C80.1044 6.57776 79.4439 5.86823 78.4165 5.86823Z" fill="black"/>
<path d="M73.6953 22.9414H77.0702L79.3702 10.981H75.9697L73.6953 22.9414Z" fill="black"/>
<path d="M87.9576 10.9564H85.6092L85.7311 10.3935C85.9269 9.24397 86.612 8.21648 87.7371 8.21648C88.3376 8.21648 88.8129 8.38774 88.8129 8.38774L89.4734 5.74611C89.4734 5.74611 88.8864 5.45276 87.6385 5.45276C86.4399 5.45276 85.2422 5.79522 84.3366 6.57774C83.1869 7.55611 82.6487 8.97443 82.3799 10.3935L82.2827 10.9564H80.7167L80.2273 13.5006H81.7934L80.0078 22.9422H83.3836L85.1692 13.5006H87.4929L87.9576 10.9564Z" fill="black"/>
<path d="M96.0749 10.981C96.0749 10.981 93.9647 16.2973 93.0172 19.1993H92.9679C92.9038 18.2647 92.1363 10.981 92.1363 10.981H88.5893L90.6205 21.963C90.6698 22.2072 90.6452 22.3547 90.547 22.5259C90.1549 23.2838 89.4949 24.018 88.7121 24.5563C88.0763 25.0208 87.367 25.3142 86.8047 25.51L87.734 28.3721C88.4191 28.2254 89.8372 27.6625 91.0359 26.5375C92.5772 25.0946 93.9954 22.8684 95.4628 19.8351L99.5968 10.9802H96.0749V10.981Z" fill="black"/>
</g>
<defs>
<clipPath id="clip0_1_1107">
<rect width="100" height="28.3721" fill="white"/>
</clipPath>
</defs>
</svg>

<svg xmlns="http://www.w3.org/2000/svg" width="220.69" height="64" fill="none" viewBox="0 0 100 29"><g clip-path="url(#a)"><path fill="#95BF47" d="M21.57 5.374a.27.27 0 0 0-.244-.228c-.102-.008-2.089-.039-2.089-.039s-1.661-1.613-1.825-1.777c-.164-.164-.485-.115-.61-.078l-.834.259a5.851 5.851 0 0 0-.4-.982C14.977 1.4 14.11.803 13.064.802h-.004c-.073 0-.145.007-.218.013a3.127 3.127 0 0 0-.094-.11c-.456-.487-1.04-.725-1.741-.704-1.352.039-2.699 1.015-3.79 2.75-.768 1.22-1.353 2.753-1.519 3.94l-2.661.824c-.784.246-.809.27-.91 1.01C2.05 9.081 0 24.934 0 24.934l17.181 2.972 7.447-1.851L21.57 5.374Zm-6.462-1.597-1.334.413c-.01-.685-.091-1.637-.41-2.46 1.026.194 1.53 1.355 1.744 2.047Zm-2.232.692-2.869.888c.277-1.062.803-2.119 1.449-2.812.24-.257.576-.545.974-.709.373.78.455 1.885.446 2.633ZM11.034.9a1.38 1.38 0 0 1 .813.213c-.366.19-.719.462-1.05.817-.859.922-1.517 2.352-1.78 3.731l-2.356.73C7.127 4.22 8.947.962 11.034.9Z"/><path fill="#5E8E3E" d="M21.324 5.147c-.101-.009-2.088-.039-2.088-.039s-1.661-1.613-1.826-1.777a.406.406 0 0 0-.23-.107v24.682l7.446-1.85S21.588 5.516 21.57 5.375a.271.271 0 0 0-.245-.228Z"/><path fill="#fff" d="m13.055 8.975-.865 3.236s-.964-.44-2.108-.367c-1.677.106-1.695 1.164-1.678 1.43.092 1.446 3.899 1.762 4.112 5.152.168 2.666-1.414 4.49-3.694 4.634-2.737.173-4.244-1.441-4.244-1.441l.58-2.467s1.517 1.144 2.73 1.068c.794-.05 1.077-.696 1.048-1.152-.119-1.887-3.219-1.776-3.415-4.877-.165-2.61 1.55-5.255 5.331-5.494 1.458-.093 2.203.278 2.203.278Z"/><path fill="#000" d="M34.434 15.75c-.856-.464-1.296-.856-1.296-1.394 0-.685.611-1.125 1.566-1.125 1.111 0 2.103.465 2.103.465l.783-2.398s-.72-.563-2.838-.563c-2.947 0-4.99 1.688-4.99 4.061 0 1.345.954 2.373 2.227 3.106 1.027.587 1.394 1.003 1.394 1.614 0 .636-.514 1.15-1.467 1.15-1.422 0-2.764-.734-2.764-.734l-.832 2.397s1.24.832 3.327.832c3.033 0 5.21-1.492 5.21-4.183 0-1.442-1.1-2.47-2.422-3.227ZM46.516 10.711c-1.492 0-2.666.71-3.57 1.786l-.05-.025 1.296-6.775h-3.375L37.539 22.94h3.376l1.125-5.894c.44-2.227 1.59-3.596 2.666-3.596.758 0 1.052.514 1.052 1.248 0 .465-.049 1.028-.147 1.492l-1.271 6.751h3.376l1.32-6.971c.147-.734.245-1.614.245-2.202-.001-1.908-1.004-3.058-2.765-3.058ZM56.915 10.711c-4.061 0-6.75 3.67-6.75 7.754 0 2.617 1.613 4.72 4.647 4.72 3.986 0 6.677-3.57 6.677-7.753 0-2.421-1.419-4.72-4.574-4.72Zm-1.663 9.883c-1.15 0-1.64-.979-1.64-2.202 0-1.932 1.004-5.087 2.838-5.087 1.199 0 1.59 1.027 1.59 2.03 0 2.079-1.002 5.259-2.788 5.259ZM70.121 10.711c-2.278 0-3.572 2.006-3.572 2.006h-.048l.196-1.81h-2.984a72.263 72.263 0 0 1-.685 4.476L60.68 27.735h3.375l.93-4.99h.073s.693.44 1.982.44c3.962 0 6.555-4.06 6.555-8.17 0-2.273-1.004-4.304-3.474-4.304Zm-3.229 9.931c-.876 0-1.395-.489-1.395-.489l.563-3.155c.392-2.104 1.492-3.498 2.667-3.498 1.027 0 1.345.954 1.345 1.859 0 2.177-1.297 5.283-3.18 5.283ZM78.416 5.868c-1.075 0-1.932.856-1.932 1.957 0 1.003.636 1.688 1.59 1.688h.049c1.052 0 1.957-.71 1.981-1.957 0-.978-.66-1.688-1.688-1.688ZM73.695 22.941h3.375l2.3-11.96h-3.4l-2.275 11.96ZM87.958 10.956h-2.349l.122-.563c.196-1.149.881-2.177 2.006-2.177.6 0 1.076.172 1.076.172l.66-2.642s-.587-.293-1.835-.293c-1.198 0-2.396.342-3.301 1.125-1.15.978-1.688 2.396-1.957 3.815l-.097.563h-1.566l-.49 2.545h1.566l-1.785 9.441h3.376l1.785-9.441h2.324l.465-2.545ZM96.075 10.981s-2.11 5.316-3.058 8.218h-.05c-.063-.934-.83-8.218-.83-8.218h-3.548l2.032 10.982c.049.244.024.392-.074.563-.392.758-1.052 1.492-1.835 2.03-.636.465-1.345.758-1.907.954l.929 2.862c.685-.147 2.103-.71 3.302-1.834 1.541-1.443 2.96-3.67 4.427-6.703l4.134-8.855h-3.522v.001Z"/></g><defs><clipPath id="a"><path fill="#fff" d="M0 0h100v28.372H0z"/></clipPath></defs></svg>
